src/assets/search.svg

<svg width="24" height="24" viewBox="0 0 24 24" fill="none" xmlns="http://www.w3.org/2000/svg">
<path d="M23.6484 22.0342L16.04 14.4258C17.2207 12.8994 17.8594 11.0332 17.8594 9.07031C17.8594 6.7207 16.9424 4.51758 15.2842 2.85645C13.626 1.19531 11.417 0.28125 9.07031 0.28125C6.72363 0.28125 4.51465 1.19824 2.85645 2.85645C1.19531 4.51465 0.28125 6.7207 0.28125 9.07031C0.28125 11.417 1.19824 13.626 2.85645 15.2842C4.51465 16.9453 6.7207 17.8594 9.07031 17.8594C11.0332 17.8594 12.8965 17.2207 14.4229 16.043L22.0313 23.6484C22.0536 23.6708 22.08 23.6885 22.1092 23.7006C22.1384 23.7126 22.1696 23.7189 22.2012 23.7189C22.2327 23.7189 22.264 23.7126 22.2931 23.7006C22.3223 23.6885 22.3488 23.6708 22.3711 23.6484L23.6484 22.374C23.6708 22.3517 23.6885 22.3252 23.7006 22.2961C23.7126 22.2669 23.7189 22.2357 23.7189 22.2041C23.7189 22.1725 23.7126 22.1413 23.7006 22.1121C23.6885 22.083 23.6708 22.0565 23.6484 22.0342ZM13.7109 13.7109C12.4688 14.9502 10.8223 15.6328 9.07031 15.6328C7.31836 15.6328 5.67188 14.9502 4.42969 13.7109C3.19043 12.4688 2.50781 10.8223 2.50781 9.07031C2.50781 7.31836 3.19043 5.66895 4.42969 4.42969C5.67188 3.19043 7.31836 2.50781 9.07031 2.50781C10.8223 2.50781 12.4717 3.1875 13.7109 4.42969C14.9502 5.67188 15.6328 7.31836 15.6328 9.07031C15.6328 10.8223 14.9502 12.4717 13.7109 13.7109Z" fill="white"/>
</svg>

<svg width="24" height="24" fill="none" xmlns="http://www.w3.org/2000/svg"><path d="m23.648 22.034-7.608-7.608a8.71 8.71 0 0 0 1.82-5.356c0-2.35-.918-4.552-2.576-6.214A8.724 8.724 0 0 0 9.07.281a8.736 8.736 0 0 0-6.214 2.575A8.72 8.72 0 0 0 .281 9.07c0 2.347.917 4.556 2.575 6.214A8.72 8.72 0 0 0 9.07 17.86a8.718 8.718 0 0 0 5.353-1.816l7.608 7.605a.239.239 0 0 0 .34 0l1.277-1.274a.24.24 0 0 0 0-.34Zm-9.937-8.323a6.527 6.527 0 0 1-4.64 1.922A6.527 6.527 0 0 1 4.43 13.71a6.527 6.527 0 0 1-1.922-4.64c0-1.753.682-3.402 1.922-4.641a6.527 6.527 0 0 1 4.64-1.922 6.51 6.51 0 0 1 4.64 1.922 6.527 6.527 0 0 1 1.923 4.64 6.522 6.522 0 0 1-1.922 4.64Z" fill="#fff"/></svg>
